X:0935
M:6/8
L:1/8
Q:3/8=108
K:E Minor
dBG       GGG      |G/F/G/A/B/c/ dBG         |AGA Bd/c/B/A/|GEE E3:|
ggg       g>ab     |dBg          e/d/c/B/A/G/|ggg a>ga     |bge e2f|
gb/g/b/g/ eg/e/g/e/|dBg          e/d/c/B/A/G/|AGA Bd/c/B/A/|GEE E3:|

